pro/src/icons/full-warning.svg

<svg width="48" height="48" viewBox="0 0 48 48" fill="none" xmlns="http://www.w3.org/2000/svg">
    <path id="icon" fill-rule="evenodd" clip-rule="evenodd" d="M43.4151 35.4888L35.5551 21.8688L27.6951 8.24875C26.0551 5.39875 21.9451 5.39875 20.2951 8.24875L12.4351 21.8688L4.57511 35.4888C2.93511 38.3388 4.98511 41.8888 8.27511 41.8888H39.7251C43.0151 41.8888 45.0651 38.3287 43.4251 35.4888H43.4151ZM26.1451 35.1987C26.1451 36.3088 25.2451 37.2088 24.1351 37.2088H23.8651C22.7551 37.2088 21.8551 36.3088 21.8551 35.1987V34.9287C21.8551 33.8187 22.7551 32.9188 23.8651 32.9188H24.1351C25.2451 32.9188 26.1451 33.8187 26.1451 34.9287V35.1987ZM26.1451 28.1988C26.1451 29.3088 25.2451 30.2088 24.1351 30.2088H23.8651C22.7551 30.2088 21.8551 29.3088 21.8551 28.1988V16.8187C21.8551 15.7087 22.7551 14.8088 23.8651 14.8088H24.1351C25.2451 14.8088 26.1451 15.7087 26.1451 16.8187V28.1988Z" fill="currentColor"/>
</svg>

<svg xmlns="http://www.w3.org/2000/svg" width="48" height="48" fill="none"><path id="icon" fill="currentColor" fill-rule="evenodd" d="m43.415 35.489-7.86-13.62-7.86-13.62c-1.64-2.85-5.75-2.85-7.4 0l-7.86 13.62-7.86 13.62c-1.64 2.85.41 6.4 3.7 6.4h31.45c3.29 0 5.34-3.56 3.7-6.4zm-17.27-.29c0 1.11-.9 2.01-2.01 2.01h-.27c-1.11 0-2.01-.9-2.01-2.01v-.27c0-1.11.9-2.01 2.01-2.01h.27c1.11 0 2.01.9 2.01 2.01zm0-7c0 1.11-.9 2.01-2.01 2.01h-.27c-1.11 0-2.01-.9-2.01-2.01v-11.38c0-1.11.9-2.01 2.01-2.01h.27c1.11 0 2.01.9 2.01 2.01z" clip-rule="evenodd"/></svg>
